X: 1
T:Gan Ainm
M:6/8
L:1/8
S:Sligo session tape (Marcas O/ Mu/rchu/, et al)
R:jig
K:G
|ded BAB|dAA A2B|ded BAB|dGG G3|ded BAB|
dAA A2g|faf ged|1BGG G3:|2BGG GBd|
|eAA fAA|efe e2d|ede gfe|dBG GBd|eAA fAA|
efe e2g|faf ged|1BGG GBd:|2BGGG2 B||
